assets/images/about/el-3.svg

<svg width="39" height="38" viewBox="0 0 39 38" fill="none" xmlns="http://www.w3.org/2000/svg">
<path d="M23.9744 18.4807C23.5533 18.1182 22.7942 17.6153 21.6542 16.9436C20.0435 15.9898 19.4963 15.5797 19.3181 15.4016C19.0848 15.1746 18.9668 14.7485 18.9668 14.1368C18.9668 13.7765 19.0233 13.5099 19.1336 13.3438C19.2279 13.2029 19.3619 13.1367 19.5569 13.1367C19.8781 13.1367 19.9701 13.2638 20.0116 13.3589C20.0731 13.5006 20.1469 13.86 20.1469 14.7641V15.6872H24.9686L24.9836 15.4926C25.0132 15.1195 25.0283 14.8498 25.0283 14.669C25.0283 13.3522 24.6679 12.3011 23.957 11.545C23.2809 10.8257 22.2734 10.3637 20.9616 10.1704V8.77148H18.5011V10.1682C17.0622 10.3601 15.9564 10.8257 15.2123 11.5548C14.429 12.3224 14.0312 13.3878 14.0312 14.7227C14.0312 15.6366 14.2167 16.4687 14.5826 17.1964C14.9476 17.9218 15.3886 18.4945 15.893 18.8979C16.3815 19.2884 17.3114 19.9037 18.6579 20.726C19.4156 21.1853 19.8617 21.6029 19.9829 21.9672C20.1132 22.3591 20.1797 23.0321 20.1797 23.9691C20.1797 24.3049 20.12 24.5541 20.0029 24.711C19.8986 24.8513 19.7428 24.9162 19.5131 24.9162C19.1924 24.9162 19.1044 24.7785 19.0611 24.6439C19.0033 24.4671 18.934 23.9606 18.934 22.5559V21.2924H14.0978V22.3431C14.0978 24.3098 14.5653 25.7159 15.4884 26.5231C16.35 27.2757 17.3625 27.7315 18.5016 27.8772V29.5694H20.9621V27.9247C22.4297 27.6933 23.5565 27.1353 24.3129 26.2636C25.0989 25.3569 25.4976 24.0988 25.4976 22.5239C25.4976 21.5425 25.3509 20.7087 25.0606 20.0445C24.7686 19.3763 24.4031 18.8499 23.9744 18.4807ZM23.9812 25.9904C23.2649 26.8172 22.1664 27.3356 20.7156 27.5333L20.5292 27.5586V29.1473H18.9345V27.4978L18.739 27.4791C17.6145 27.3712 16.618 26.9434 15.7782 26.209C14.9503 25.4853 14.5311 24.1845 14.5311 22.3435V21.7149H18.5016V22.5563C18.5016 23.7438 18.549 24.4688 18.6483 24.7718C18.7322 25.0308 18.95 25.3396 19.5136 25.3396C19.8831 25.3396 20.1661 25.2116 20.3538 24.9602C20.5283 24.7265 20.6135 24.4018 20.6135 23.9695C20.6135 22.9744 20.5424 22.2769 20.3957 21.8371C20.2394 21.3684 19.7455 20.8881 18.8871 20.3679C17.5566 19.5549 16.6421 18.9512 16.1673 18.5713C15.7108 18.2066 15.3084 17.681 14.9717 17.0102C14.635 16.3407 14.4646 15.5713 14.4646 14.7227C14.4646 13.5037 14.8191 12.5383 15.5189 11.8528C16.2247 11.1611 17.3096 10.728 18.7426 10.5645L18.9335 10.5423V9.19442H20.5283V10.5405L20.7169 10.5645C22.0178 10.7267 23.0006 11.1527 23.6372 11.8315C24.2724 12.5068 24.5945 13.4619 24.5945 14.6699C24.5945 14.8058 24.5849 15.0057 24.5658 15.2661H20.5798V14.7654C20.5798 13.9715 20.5242 13.4579 20.4098 13.1954C20.3151 12.9764 20.0895 12.7156 19.5564 12.7156C19.2156 12.7156 18.9436 12.8538 18.77 13.1145C18.61 13.354 18.5326 13.689 18.5326 14.1381C18.5326 14.8765 18.6893 15.3878 19.0087 15.6997C19.2935 15.9853 20.085 16.5104 21.4287 17.3065C22.5313 17.9556 23.2909 18.4581 23.6859 18.7979C24.0659 19.1258 24.394 19.6011 24.6606 20.2106C24.9271 20.8219 25.0629 21.6007 25.0629 22.5243C25.0638 23.9953 24.6997 25.1619 23.9812 25.9904Z" fill="#0029FF" stroke="#0029FF" stroke-width="0.3"/>
<path d="M19.7653 1C9.48864 1 1.12891 9.15137 1.12891 19.1709C1.12891 29.1899 9.48864 37.3409 19.7653 37.3409C30.0405 37.3409 38.4007 29.1899 38.4007 19.1709C38.4007 9.15137 30.0405 1 19.7653 1ZM19.7653 36.9184C9.72831 36.9184 1.56223 28.9571 1.56223 19.1709C1.56223 9.38417 9.72831 1.4225 19.7653 1.4225C29.8018 1.4225 37.9674 9.38417 37.9674 19.1709C37.9674 28.9571 29.8018 36.9184 19.7653 36.9184Z" fill="#0029FF" stroke="#0029FF" stroke-width="0.3"/>
</svg>

<svg width="39" height="38" fill="none" xmlns="http://www.w3.org/2000/svg"><path d="M23.974 18.48c-.42-.362-1.18-.865-2.32-1.536-1.61-.954-2.158-1.364-2.336-1.542-.233-.227-.351-.653-.351-1.265 0-.36.056-.627.167-.793.094-.141.228-.207.423-.207.321 0 .413.127.455.222.061.142.135.501.135 1.405v.923h4.822l.015-.194c.03-.373.044-.643.044-.824 0-1.317-.36-2.368-1.071-3.124-.676-.72-1.684-1.181-2.995-1.375V8.771h-2.46v1.397c-1.44.192-2.546.658-3.29 1.387-.783.767-1.18 1.833-1.18 3.168 0 .914.185 1.746.55 2.473.366.726.807 1.298 1.311 1.702.488.39 1.418 1.006 2.765 1.828.758.46 1.204.877 1.325 1.241.13.392.197 1.065.197 2.002 0 .336-.06.585-.177.742-.104.14-.26.205-.49.205-.32 0-.409-.137-.452-.272-.058-.177-.127-.683-.127-2.088v-1.264h-4.836v1.051c0 1.967.467 3.373 1.39 4.18a5.576 5.576 0 003.014 1.354v1.692h2.46v-1.644c1.468-.232 2.595-.79 3.35-1.661.787-.907 1.186-2.165 1.186-3.74 0-.982-.147-1.815-.437-2.48-.292-.668-.658-1.194-1.087-1.563zm.007 7.51c-.716.827-1.815 1.346-3.265 1.543l-.187.026v1.588h-1.595v-1.65l-.195-.018a5.158 5.158 0 01-2.96-1.27c-.829-.724-1.248-2.024-1.248-3.866v-.628h3.97v.841c0 1.188.048 1.913.147 2.216.084.259.302.568.866.568.37 0 .652-.128.84-.38.174-.233.26-.558.26-.99 0-.996-.072-1.693-.218-2.133-.157-.469-.65-.949-1.509-1.47-1.33-.812-2.245-1.416-2.72-1.796-.456-.364-.859-.89-1.195-1.56-.337-.67-.507-1.44-.507-2.288 0-1.22.354-2.185 1.054-2.87.706-.692 1.79-1.125 3.224-1.288l.19-.023V9.194h1.595v1.346l.189.025c1.3.162 2.284.588 2.92 1.267.635.675.957 1.63.957 2.838 0 .136-.01.336-.028.596H20.58v-.5c0-.794-.056-1.308-.17-1.57-.095-.22-.32-.48-.854-.48-.34 0-.612.138-.786.399-.16.239-.237.574-.237 1.023 0 .739.156 1.25.476 1.562.285.285 1.076.81 2.42 1.607 1.102.649 1.862 1.151 2.257 1.49.38.329.708.804.975 1.414.266.61.402 1.39.402 2.313 0 1.471-.363 2.638-1.082 3.466z" fill="#0029FF" stroke="#0029FF" stroke-width=".3"/><path d="M19.765 1C9.49 1 1.13 9.151 1.13 19.17c0 10.02 8.36 18.17 18.636 18.17s18.636-8.15 18.636-18.17C38.4 9.152 30.04 1 19.765 1zm0 35.918c-10.037 0-18.203-7.96-18.203-17.747 0-9.787 8.166-17.748 18.203-17.748 10.037 0 18.202 7.961 18.202 17.748 0 9.786-8.165 17.747-18.202 17.747z" fill="#0029FF" stroke="#0029FF" stroke-width=".3"/></svg>
